packages/icons/src/svgs/uncategorized/TextFiles.svg

<svg xmlns="http://www.w3.org/2000/svg" aria-hidden="true" viewBox="0 0 32 32">
    <title>
        Text files
    </title>
    <path fill="none" stroke="currentColor" stroke-linecap="round" stroke-linejoin="round" stroke-width="2" d="M5.5 26.89V5.11A1.61 1.61 0 017.11 3.5h17.78a1.61 1.61 0 011.61 1.61v21.78a1.61 1.61 0 01-1.61 1.61H7.11a1.61 1.61 0 01-1.61-1.61zm5.11-15h11.26m-11.26 4.8h11.26m-11.26 4.93H15"/>
</svg>

<svg role="img" xmlns="http://www.w3.org/2000/svg" aria-hidden="true" viewBox="0 0 32 32">
  <title>Text files</title>
  <path
    d="M5.5,26.89V5.11A1.61,1.61,0,0,1,7.11,3.5H24.89A1.61,1.61,0,0,1,26.5,5.11V26.89a1.61,1.61,0,0,1-1.61,1.61H7.11A1.61,1.61,0,0,1,5.5,26.89Zm5.11-15H21.87M10.61,16.69H21.87M10.61,21.62H15"
    fill="none"
    stroke="currentColor"
    stroke-width="2"
    stroke-linecap="round"
    stroke-linejoin="round"
  ></path>
</svg>
